public/img/metager.svg

<?xml version="1.0" encoding="UTF-8" standalone="no"?>
<!-- Created with Inkscape (http://www.inkscape.org/) -->

<svg
   xmlns:dc="http://purl.org/dc/elements/1.1/"
   xmlns:cc="http://creativecommons.org/ns#"
   xmlns:rdf="http://www.w3.org/1999/02/22-rdf-syntax-ns#"
   xmlns:svg="http://www.w3.org/2000/svg"
   xmlns="http://www.w3.org/2000/svg"
   xmlns:sodipodi="http://sodipodi.sourceforge.net/DTD/sodipodi-0.dtd"
   xmlns:inkscape="http://www.inkscape.org/namespaces/inkscape"
   version="1.1"
   id="svg965"
   xml:space="preserve"
   width="813.33331"
   height="142.66667"
   viewBox="0 0 813.33331 142.66667"
   sodipodi:docname="Original_metaGER.svg"
   inkscape:version="0.92.4 (5da689c313, 2019-01-14)"><metadata
     id="metadata971"><rdf:RDF><cc:Work
         rdf:about=""><dc:format>image/svg+xml</dc:format><dc:type
           rdf:resource="http://purl.org/dc/dcmitype/StillImage" /><dc:title /></cc:Work></rdf:RDF></metadata><defs
     id="defs969" /><sodipodi:namedview
     pagecolor="#ffffff"
     bordercolor="#666666"
     borderopacity="1"
     objecttolerance="10"
     gridtolerance="10"
     guidetolerance="10"
     inkscape:pageopacity="0"
     inkscape:pageshadow="2"
     inkscape:window-width="1920"
     inkscape:window-height="1015"
     id="namedview967"
     showgrid="false"
     inkscape:zoom="4.3475411"
     inkscape:cx="529.3338"
     inkscape:cy="39.818649"
     inkscape:window-x="0"
     inkscape:window-y="0"
     inkscape:window-maximized="1"
     inkscape:current-layer="g973"
     inkscape:snap-bbox="true"
     inkscape:snap-page="true"
     inkscape:bbox-paths="false"
     inkscape:bbox-nodes="false"
     inkscape:snap-bbox-edge-midpoints="true"><inkscape:grid
       type="xygrid"
       id="grid839" /></sodipodi:namedview><g
     id="g973"
     inkscape:groupmode="layer"
     inkscape:label="ink_ext_XXXXXX"
     transform="matrix(1.3333333,0,0,-1.3333333,0,142.66667)"><g
       id="g975"
       transform="matrix(0.1,0,0,0.1,-0.51753393,-0.68711031)"><path
         d="M 8.11328,805.719 V 6.87109 H 118.301 V 695.531 H 540.68 V 6.87109 H 647.805 V 695.531 h 264.754 c 104.061,0 156.101,-55.09 156.101,-163.746 V 6.87109 h 111.71 V 550.148 c 0,169.872 -82.64,255.571 -246.39,255.571 H 8.11328"
         style="fill:#f47216;fill-opacity:1;fill-rule:nonzero;stroke:none"
         id="path977"
         inkscape:connector-curvature="0" /><path
         d="M 2074.1,6.87109 V 115.527 h -456.05 c -101,0 -151.5,53.563 -151.5,157.629 V 547.09 c 0,108.652 52.04,149.976 156.1,149.976 h 243.32 c 82.64,0 125.49,-41.32 125.49,-122.429 v -15.305 c 0,-70.391 -41.32,-105.594 -123.96,-105.594 h -325.14 v -94.886 l 354.22,0.003 c 136.2,0 202.01,59.692 202.01,177.528 v 58.152 c 0,140.785 -70.4,211.184 -212.72,211.184 h -281.59 c -165.28,0 -249.45,-85.699 -249.45,-255.571 V 262.445 C 1354.83,92.5703 1439,6.87109 1604.28,6.87109 h 469.82"
         style="fill:#f47216;fill-opacity:1;fill-rule:nonzero;stroke:none"
         id="path979"
         inkscape:connector-curvature="0" /><path
         d="m 2654.11,115.527 h -21.53 c -98.36,0 -148.88,50.86 -151.4,149.731 v 431.808 h 172.93 v 108.653 h -172.93 v 73.277 h 0.16 v 68.363 44.43 c 0,48.231 -19.15,74.091 -69.52,74.091 h -42.19 V 952.496 h -0.17 V 805.719 H 2219.49 V 697.066 h 149.97 V 550.145 l -0.1,0.003 V 262.445 c 0,-3.265 0.04,-6.492 0.1,-9.695 v -19.105 h 0.77 C 2379.45,82.9492 2463.15,6.87109 2618.8,6.87109 h 35.31 V 115.527"
         style="fill:#f47216;fill-opacity:1;fill-rule:nonzero;stroke:none"
         id="path981"
         inkscape:connector-curvature="0" /><path
         d="m 3966.63,1065.88 c -166.8,0 -249.45,-84.169 -249.45,-254.032 l 0.01,-550.938 c 0,-169.8631 82.64,-254.03891 249.45,-254.03891 h 344.33 c 149.97,0 224.96,74.98831 224.96,226.49591 V 575.398 H 4110.48 V 480.52 h 316.79 V 254.789 c 0,-93.34 -45.92,-139.262 -139.26,-139.262 h -299.95 c -102.52,0 -154.56,52.028 -154.56,157.625 l -0.01,520.328 c 0,105.598 52.03,157.625 154.57,157.625 h 521.85 v 114.775 h -543.28"
         style="fill:#f47216;fill-opacity:1;fill-rule:nonzero;stroke:none"
         id="path985"
         inkscape:connector-curvature="0" /><path
         d="m 5875,805.719 c -166.81,0 -249.45,-85.699 -249.45,-255.824 V 6.87109 h 111.72 V 531.535 c 0,108.906 53.56,163.996 157.62,163.996 h 195.89 V 805.719 H 5875"
         style="fill:#f47216;fill-opacity:1;fill-rule:nonzero;stroke:none"
         id="path987"
         inkscape:connector-curvature="0" /><path
         d="M 5426.6,6.87109 V 115.527 h -456.05 c -101,0 -151.5,53.563 -151.5,157.629 V 547.09 c 0,108.652 52.03,149.976 156.09,149.976 h 243.33 c 82.64,0 125.49,-41.32 125.49,-122.429 v -15.305 c 0,-70.391 -41.32,-105.594 -123.96,-105.594 h -325.14 v -94.886 l 354.22,0.003 c 136.2,0 202.01,59.692 202.01,177.528 v 58.152 c 0,140.785 -70.4,211.184 -212.72,211.184 h -281.59 c -165.28,0 -249.45,-85.699 -249.45,-255.571 V 262.445 c 0,-169.8747 84.17,-255.57391 249.45,-255.57391 h 469.82"
         style="fill:#f47216;fill-opacity:1;fill-rule:nonzero;stroke:none"
         id="path989"
         inkscape:connector-curvature="0" /></g><g
       aria-label="z"
       transform="matrix(0.80408375,0,0,-0.75000002,-28.620766,179.06689)"
       style="font-style:normal;font-weight:normal;font-size:266.66665649px;line-height:1.25;font-family:sans-serif;letter-spacing:0px;word-spacing:0px;fill:#f47216;fill-opacity:1;stroke:none"
       id="flowRoot820"><path
         d="m 457.47211,148.16919 h -76.16 v -16.64 h 100.05333 v 14.50666 l -76.37333,78.08 h 76.37333 v 14.64 H 381.31211 v -12.29333 l 31.57766,-32.46218 z"
         style="font-style:normal;font-variant:normal;font-weight:normal;font-stretch:normal;font-size:213.33332825px;font-family:Zekton;-inkscape-font-specification:Zekton;fill:#f47216"
         id="path836"
         inkscape:connector-curvature="0"
         sodipodi:nodetypes="cccccccccccc" /></g><flowRoot
       xml:space="preserve"
       id="flowRoot828"
       style="fill:black;fill-opacity:1;stroke:none;font-family:sans-serif;font-style:normal;font-weight:normal;font-size:40px;line-height:1.25;letter-spacing:0px;word-spacing:0px"><flowRegion
         id="flowRegion830"><rect
           id="rect832"
           width="46.266521"
           height="75.448746"
           x="327.54147"
           y="94.81974" /></flowRegion><flowPara
         id="flowPara834"></flowPara></flowRoot></g></svg>

<?xml version="1.0" encoding="UTF-8"?>
<svg width="813.33" height="142.67" version="1.1" viewBox="0 0 813.33331 142.66667" xml:space="preserve" xmlns="http://www.w3.org/2000/svg" xmlns:cc="http://creativecommons.org/ns#" xmlns:dc="http://purl.org/dc/elements/1.1/" xmlns:rdf="http://www.w3.org/1999/02/22-rdf-syntax-ns#"><metadata><rdf:RDF><cc:Work rdf:about=""><dc:format>image/svg+xml</dc:format><dc:type rdf:resource="http://purl.org/dc/dcmitype/StillImage"/><dc:title/></cc:Work></rdf:RDF></metadata><g transform="matrix(1.3333 0 0 -1.3333 0 142.67)"><g transform="scale(.1)" fill="#f47216"><path d="m8.1133 805.72v-798.85h110.19v688.66h422.38v-688.66h107.12v688.66h264.75c104.06 0 156.1-55.09 156.1-163.75v-524.91h111.71v543.28c0 169.87-82.64 255.57-246.39 255.57h-925.87"/><path d="m2074.1 6.8711v108.66h-456.05c-101 0-151.5 53.563-151.5 157.63v273.93c0 108.65 52.04 149.98 156.1 149.98h243.32c82.64 0 125.49-41.32 125.49-122.43v-15.305c0-70.391-41.32-105.59-123.96-105.59h-325.14v-94.886l354.22 3e-3c136.2 0 202.01 59.692 202.01 177.53v58.152c0 140.78-70.4 211.18-212.72 211.18h-281.59c-165.28 0-249.45-85.699-249.45-255.57v-287.7c0-169.87 84.17-255.57 249.45-255.57h469.82"/><path d="m2654.1 115.53h-21.53c-98.36 0-148.88 50.86-151.4 149.73v431.81h172.93v108.65h-172.93v73.277h0.16v112.79c0 48.231-19.15 74.091-69.52 74.091h-42.19v-113.38h-0.17v-146.78h-149.97v-108.65h149.97v-146.92l-0.1 3e-3v-287.7c0-3.265 0.04-6.492 0.1-9.695v-19.105h0.77c9.22-150.7 92.92-226.77 248.57-226.77h35.31v108.66"/><path d="m2828 805.72v-230.32h69.31c27.25 0 40.87 14.426 40.87 42.879v78.789h345.86c101.01 0 151.51-53.668 151.51-157.63v-85.7h-497.37l0.01-52.015c0-28.313-13.75-42.871-40.87-42.871h-93.81v-140.79c0-140.79 70.4-211.19 212.72-211.19h281.59c165.27 0 249.45 85.699 249.45 255.57v287.7c0 169.87-84.18 255.57-249.45 255.57zm289.79-446.87h74.76c50.36 0 69.52-25.856 69.52-74.098v-112.79c0-38.305-19.21-58.168-56.76-58.168h-38.57c-32.53 0-48.95 19.25-48.95 57.465v187.59"/><path d="m3966.6 1065.9c-166.8 0-249.45-84.169-249.45-254.03l0.01-550.94c0-169.86 82.64-254.04 249.45-254.04h344.33c149.97 0 224.96 74.988 224.96 226.5v342.03h-425.45v-94.878h316.79v-225.73c0-93.34-45.92-139.26-139.26-139.26h-299.95c-102.52 0-154.56 52.028-154.56 157.62l-0.01 520.33c0 105.6 52.03 157.62 154.57 157.62h521.85v114.78h-543.28"/><path d="m5875 805.72c-166.81 0-249.45-85.699-249.45-255.82v-543.02h111.72v524.66c0 108.91 53.56 164 157.62 164h195.89v110.19h-215.78"/><path d="m5426.6 6.8711v108.66h-456.05c-101 0-151.5 53.563-151.5 157.63v273.93c0 108.65 52.03 149.98 156.09 149.98h243.33c82.64 0 125.49-41.32 125.49-122.43v-15.305c0-70.391-41.32-105.59-123.96-105.59h-325.14v-94.886l354.22 3e-3c136.2 0 202.01 59.692 202.01 177.53v58.152c0 140.78-70.4 211.18-212.72 211.18h-281.59c-165.28 0-249.45-85.699-249.45-255.57v-287.7c0-169.87 84.17-255.57 249.45-255.57h469.82"/></g></g></svg>
